X:66
T:Zbgom Selo
S:the Empty Pocket Band (Leeds)
R:Other
O:S.E.Europe
M:4/4
K:AMix
c2c2 d2cB|c2c2 d2cB|c2c2 e2cB|c2B2 A4::\
a4g4|f4e4|a4g4|f4e4|\
e2f2 g2a2|g2f2 e2d2|e2f2 g2a2|g2f2 e2d2|\
e2d2 c2d2|e4 e4|e4 e4|e2d2 c2B2|A4A4|A4A4:|
